docs/svgs/room-pool.svg

<svg viewBox="0 0 24 24" height="24px" width="24px" fill="#44739e" xmlns="http://www.w3.org/2000/svg"><title>hue:room-pool</title><desc>Source: https://github.com/arallsopp/hass-hue-icons</desc><path d="M 20.996094 14.222656 L 21 14.222656 L 21 16.910156 C 20.910156 16.84375 20.832031 16.777344 20.78125 16.730469 C 20.289062 16.230469 19.476562 15.78125 18.574219 15.773438 C 18.566406 15.773438 18.558594 15.773438 18.550781 15.773438 C 18.460938 15.773438 18.367188 15.777344 18.273438 15.785156 C 17.660156 15.847656 17.019531 16.125 16.417969 16.730469 C 15.394531 17.761719 14.445312 16.984375 14.179688 16.730469 C 13.304688 15.84375 11.421875 15.117188 9.820312 16.730469 C 8.796875 17.761719 7.84375 16.984375 7.582031 16.730469 C 7.085938 16.230469 6.273438 15.78125 5.371094 15.773438 C 4.671875 15.765625 3.917969 16.023438 3.21875 16.730469 C 3.144531 16.804688 3.074219 16.847656 3 16.902344 L 3 14.222656 L 3.003906 14.222656 C 3.007812 14.035156 3.078125 13.847656 3.21875 13.703125 C 4.132812 12.78125 5.140625 12.628906 6 12.828125 L 6 5.25 C 6 4.835938 5.664062 4.5 5.25 4.5 C 4.835938 4.5 4.5 4.835938 4.5 5.25 C 4.5 5.664062 4.164062 6 3.75 6 C 3.335938 6 3 5.664062 3 5.25 C 3 4.007812 4.007812 3 5.25 3 C 6.492188 3 7.5 4.007812 7.5 5.25 L 7.5 6.75 L 12.75 6.75 L 12.75 5.25 C 12.75 4.835938 12.414062 4.5 12 4.5 C 11.585938 4.5 11.25 4.835938 11.25 5.25 C 11.25 5.664062 10.914062 6 10.5 6 C 10.085938 6 9.75 5.664062 9.75 5.25 C 9.75 4.007812 10.757812 3 12 3 C 13.242188 3 14.25 4.007812 14.25 5.25 L 14.25 13.765625 C 14.441406 13.9375 14.820312 14.210938 15.300781 14.222656 L 15.355469 14.222656 C 15.679688 14.214844 16.042969 14.082031 16.417969 13.703125 C 18.019531 12.09375 19.902344 12.820312 20.78125 13.703125 C 20.921875 13.847656 20.992188 14.035156 20.996094 14.222656 Z M 9.820312 13.703125 C 10.789062 12.730469 11.859375 12.613281 12.75 12.867188 L 12.75 12 L 7.5 12 L 7.5 13.628906 C 7.527344 13.65625 7.554688 13.679688 7.582031 13.703125 C 7.742188 13.863281 8.164062 14.210938 8.703125 14.222656 L 8.753906 14.222656 C 9.082031 14.214844 9.445312 14.082031 9.820312 13.703125 Z M 7.5 10.5 L 12.75 10.5 L 12.75 8.25 L 7.5 8.25 Z M 19.722656 17.78125 C 19.726562 17.78125 19.726562 17.78125 19.730469 17.785156 C 19.796875 17.851562 20.277344 18.3125 21 18.570312 L 21 21 L 3 21 L 3 18.589844 C 3.449219 18.4375 3.878906 18.175781 4.269531 17.785156 C 4.273438 17.78125 4.277344 17.78125 4.28125 17.777344 C 4.535156 17.515625 4.785156 17.371094 5.023438 17.300781 C 5.734375 17.09375 6.320312 17.582031 6.519531 17.78125 C 6.523438 17.78125 6.527344 17.785156 6.53125 17.785156 C 6.605469 17.859375 7.097656 18.335938 7.84375 18.589844 C 8.925781 18.960938 10.003906 18.667969 10.878906 17.777344 C 11.90625 16.734375 12.855469 17.515625 13.121094 17.777344 C 13.175781 17.832031 13.679688 18.332031 14.445312 18.589844 C 14.75 18.695312 15.054688 18.746094 15.355469 18.746094 C 16.117188 18.746094 16.847656 18.417969 17.476562 17.78125 C 17.476562 17.777344 17.480469 17.777344 17.480469 17.777344 C 17.609375 17.644531 17.734375 17.542969 17.859375 17.464844 C 18.730469 16.921875 19.488281 17.546875 19.722656 17.78125 Z M 19.722656 17.78125 "/></svg>

<svg viewBox="0 0 24 24" height="24px" width="24px" fill="#44739e" xmlns="http://www.w3.org/2000/svg"><title>hue:room-pool</title><desc>Source: https://github.com/arallsopp/hass-hue-icons</desc><path d="M21,14.22L21,14.22l0,2.69c-0.09-0.07-0.17-0.13-0.22-0.18c-0.49-0.5-1.3-0.95-2.21-0.96c-0.01,0-0.02,0-0.02,0 c-0.09,0-0.18,0-0.28,0.01c-0.61,0.06-1.25,0.34-1.86,0.95c-1.02,1.03-1.97,0.25-2.24,0c-0.88-0.89-2.76-1.61-4.36,0 c-1.02,1.03-1.98,0.25-2.24,0c-0.5-0.5-1.31-0.95-2.21-0.96c-0.7-0.01-1.45,0.25-2.15,0.96C3.14,16.8,3.07,16.85,3,16.9v-2.68h0 c0-0.19,0.07-0.38,0.21-0.52c0.91-0.92,1.92-1.07,2.78-0.88V5.25C6,4.84,5.66,4.5,5.25,4.5S4.5,4.84,4.5,5.25S4.16,6,3.75,6 S3,5.66,3,5.25C3,4.01,4.01,3,5.25,3S7.5,4.01,7.5,5.25v1.5h5.25v-1.5c0-0.41-0.34-0.75-0.75-0.75s-0.75,0.34-0.75,0.75 S10.91,6,10.5,6S9.75,5.66,9.75,5.25C9.75,4.01,10.76,3,12,3s2.25,1.01,2.25,2.25v8.52c0.19,0.17,0.57,0.45,1.05,0.46h0.05 c0.32-0.01,0.69-0.14,1.06-0.52c1.6-1.61,3.48-0.88,4.36,0C20.92,13.85,20.99,14.04,21,14.22z M9.82,13.7 c0.97-0.97,2.04-1.09,2.93-0.84V12H7.5v1.63c0.03,0.03,0.05,0.05,0.08,0.07c0.16,0.16,0.58,0.51,1.12,0.52h0.05 C9.08,14.21,9.45,14.08,9.82,13.7z M7.5,10.5h5.25V8.25H7.5V10.5z M19.72,17.78C19.73,17.78,19.73,17.78,19.72,17.78 c0.07,0.07,0.55,0.53,1.28,0.79V21H3v-2.41c0.45-0.15,0.88-0.41,1.27-0.8c0,0,0.01,0,0.01-0.01c0.25-0.26,0.5-0.41,0.74-0.48 c0.71-0.21,1.3,0.28,1.5,0.48c0,0,0.01,0,0.01,0c0.07,0.07,0.57,0.55,1.31,0.8c1.08,0.37,2.16,0.08,3.04-0.81 c1.03-1.04,1.98-0.26,2.24,0c0.05,0.05,0.56,0.55,1.32,0.81c0.3,0.11,0.61,0.16,0.91,0.16c0.76,0,1.49-0.33,2.12-0.96c0,0,0,0,0,0 c0.13-0.13,0.25-0.23,0.38-0.31C18.73,16.92,19.49,17.55,19.72,17.78z"/></svg>
